teeny/solid/arrow-right-circle.svg

<svg width="15" height="15" viewBox="0 0 15 15" fill="none" xmlns="http://www.w3.org/2000/svg">
<path fill-rule="evenodd" clip-rule="evenodd" d="M0 7.5C0 3.35786 3.35786 0 7.5 0C11.6421 0 15 3.35786 15 7.5C15 11.6421 11.6421 15 7.5 15C3.35786 15 0 11.6421 0 7.5ZM8.50008 4.79285L11.2072 7.49995L8.50008 10.2071L7.79297 9.49995L9.29292 8H4V7H9.29302L7.79297 5.49995L8.50008 4.79285Z" fill="black"/>
</svg>

<svg viewBox="0 0 15 15" xmlns="http://www.w3.org/2000/svg"><path fill-rule="evenodd" d="M0 7.5C0 3.35 3.35 0 7.5 0 11.64 0 15 3.35 15 7.5c0 4.14-3.36 7.5-7.5 7.5C3.35 15 0 11.64 0 7.5Zm8.5-2.71l2.7 2.7 -2.71 2.7 -.71-.71 1.49-1.5h-5.3v-1h5.29L7.75 5.47l.7-.71Z"/></svg>
